X: 101
T: Deus tuorum militum II
N: Derived from Mar2097-Deus_tuorum_militum_II.krn
C: Johannes Martini
%%abc-version 2.0
%%abcx-abcm2ps-target-version 5.9.1 (29 Sep 2008)
%%abc-creator hum2abc beta
%%abcx-conversion-date 2019/02/17 07:19:43
%%abc-edited-by Jesse Rodin
%%abc-edited-by Chris Gage 08-15-2014
%%abcx-initial-encoding-date 2014/10/05/
%%humdrum-veritas 2010675541
%%humdrum-veritas-data 1407759474
%%linebreak <none>
%%barnumbers 0
L: 1/4
M: 3/1
Q: 1/2=120
%%staves [1 2 3 4]
V: 1 clef=treble
V: 2 clef=treble-8
V: 3 clef=treble-8
V: 4 clef=bass
K: C
[V:1] z12 | 
[V:2] z12 | 
[V:3] z12 | 
[V:4] E,4F,4E,4- | 
[V:1] z12 | 
[V:2] e4f4e4- | 
[V:3] z12 | 
[V:4] E,4D,4E,2C,2- | 
[V:1] E4F4E4- | 
[V:2] e4d4e2c2- | 
[V:3] z12 | 
[V:4] C,B,,C,2D,4A,,4- | 
[V:1] E4D4G4- | 
[V:2] cBc2d4G2AB | 
[V:3] E4F4E4- | 
[V:4] A,,4D,4C,4 | 
[V:1] G4A4B2c2 | 
[V:2] c2def4d4- | 
[V:3] E4D4G4- | 
[V:4] z2G,4F,2G,2A,2 | 
[V:1] d2B2c4B2A2 | 
[V:2] d4d4z4 | 
[V:3] G4A4B2c2 | 
[V:4] _B,3A,F,2A,2G,2F,E, | 
[V:1] BAGFE4D4 | 
[V:2] F4G2A2B4 | 
[V:3] d2B2c4z4 | 
[V:4] D,4C,4G,4 | 
[V:1] C2E4F2G3F | 
[V:2] c2BAG4z2G2 | 
[V:3] c8B4 | 
[V:4] C,6D,2E,4 | 
[V:1] A6G2G3F | 
[V:2] c2d2e2g3fed | 
[V:3] A4B8 | 
[V:4] F,4E,8 | 
[V:1] A4z4B4 | 
[V:2] c2d4e4c2- | 
[V:3] A8z4 | 
[V:4] F,4D,4G,4 | 
[V:1] c6B2A4 | 
[V:2] c2f4d4g2- | 
[V:3] z12 | 
[V:4] A,4F,8 | 
[V:1] G4z4z4 | 
[V:2] g2e4a4g2- | 
[V:3] B4c6B2 | 
[V:4] G,4C,2F,4G,2 | 
[V:1] A4B3AB2c2- | 
[V:2] g2^f2g4G2A2- | 
[V:3] A4G4z4 | 
[V:4] D,4z2G,4F,E, | 
[V:1] c2BAG6A2- | 
[V:2] ABcde2d3ef2- | 
[V:3] A4B3AB2c2- | 
[V:4] F,4E,2G,4F,2- | 
[V:1] A2B3AG4^F2 | 
[V:2] fed4c2d4 | 
[V:3] c2BAG4A4 | 
[V:4] F,2G,2E,4D,4 | 
[V:1] G8z4 | 
[V:2] B2c3de3dg2- | 
[V:3] G4z4G4 | 
[V:4] E,2C,3B,,C,3D,E,2- | 
[V:1] z4z4G4 | 
[V:2] gfedf2e2d4 | 
[V:3] G2A3Bc4B2 | 
[V:4] E,D,C,2D,2C,2G,4 | 
[V:1] G2A3Bc4B2 | 
[V:2] z2f4e2g4 | 
[V:3] c8d4 | 
[V:4] C,2F,2A,4G,4 | 
[V:1] c4z4c4 | 
[V:2] e4z2A3Bc2 | 
[V:3] c8z4 | 
[V:4] C,3D,E,2F,4E,2 | 
[V:1] B2AGA4G4 | 
[V:2] d2e2f4d2g2- | 
[V:3] z4c4B4 | 
[V:4] D,2G,2F,4G,4 | 
[V:1] z4B4G4 | 
[V:2] g^f^feg2d2e3d | 
[V:3] A4G4z4 | 
[V:4] C4D2B,2C3B, | 
[V:1] z2d3cB2ABcd | 
[V:2] d4B2d2c2f2 | 
[V:3] B4G4z2F2 | 
[V:4] G,4z4A,4 | 
[V:1] B2A3GG4^F2 | 
[V:2] d4e4d4 | 
[V:3] G2A2B2c2A4 | 
[V:4] G,2F,2G,2C,2D,4 | 
[V:1] G8z4 | 
[V:2] B4e4c4 | 
[V:3] G8z4 | 
[V:4] E,4C,4F,2A,2 | 
[V:1] B4G4A4 | 
[V:2] d2e3dg4f2 | 
[V:3] z12 | 
[V:4] G,4z4D4 | 
[V:1] z4G4F4 | 
[V:2] d2e3Bc2d4 | 
[V:3] B4G4A4 | 
[V:4] G,4E,4D,4 | 
[V:1] E4D2A4G2 | 
[V:2] e2g2f2d3Bc2 | 
[V:3] z4F4E4 | 
[V:4] C,4D,4z2E,2 | 
[V:1] F2E3DD4^C2 | 
[V:2] d3Bc2A2e4 | 
[V:3] D2G4F2E4 | 
[V:4] F,2C,4D,2A,,4 | 
[V:1] D4z4E4 | 
[V:2] f4g8 | 
[V:3] D4z4z4 | 
[V:4] z2D,2E,2C,3B,,C,2 | 
[V:1] F4G8 | 
[V:2] f4e2dcB2c2- | 
[V:3] z4z4E4 | 
[V:4] D,4C,2G,4E,2 | 
[V:1] F4E4z4 | 
[V:2] c2B2c4A4 | 
[V:3] F4G4F4- | 
[V:4] D,4C,4D,4 | 
[V:1] [M:3/2]A4F2 :
[V:2] [M:3/2]d4d2 :
[V:3] F6 :
[V:4] [M:3/2]D,4D,2 :
[V:1] G4E2- :
[V:2] e6- :
[V:3] E6 :
[V:4] C,6- :
[V:1] E2F4 | 
[V:2] e2d4 | 
[V:3] A6 | 
[V:4] C,2D,4 | 
[V:1] G4E2 :
[V:2] B4c2 :
[V:3] G6 :
[V:4] E,4C,2 :
[V:1] D2F3E :
[V:2] A2d4 :
[V:3] F6- :
[V:4] D,4A,,2- :
[V:1] E2D3C | 
[V:2] c2A3G | 
[V:3] F6 | 
[V:4] A,,2D,4 | 
[V:1] E6 |]  
[V:2] B6 |]  
[V:3] E6 |]  
[V:4] G,6 |]  



